X: 25048
T: Maids Of Ardagh, The
R: polka
M: 2/4
K: Dmajor
|:G/|FA BA|dA/d/ f2|fe/f/ gc|ed B/c/B/A/|
FA BA|dA/d/ f2|fe/f/ gc|1 ed d3/2:|[3 ed d2||
|:ef/e/ ce|fe a2|ef/e/ ce|fe c/B/A|
ef/e/ ce|fe a2|ef/e/ dB|1 BA A2:|2 BA A3/2||

